X:15018
T:Morpeth Rant - Old
T:Old Morpeth Rant
R:Hornpipe
C:Trad.
O:England, North
Z:Paul Hardy's Session Tunebook 2015 (see www.paulhardy.net). Creative Commons cc by-nc-sa licenced.
M:4/4
L:1/8
Q:1/4=160
K:G
DE/F/|"G"G2DC B,G,B,D|"C"ECEG "D"FDFA|"G"BGcA dBAG|"D7"F2A2 A2 GF|
"G"G2DC B,G,B,D|"C"ECEG "D"FDFA|"G"Ggfe "D7"dcBA|"G"G2G2 G2:|
|:ef|"G"gdBG "D7"FAce|"G"dBAG "Em"GFED|"Am"cAcA "G"BGBG|"D"F2D2"Dm"D2=F2|
"C"ECEG "Am"cBAG|"D"FDFA dcBA|"G"Ggfe "D7"dcBA|"G"G2 G2 G2:|

